www/assets/icons/report_off.svg

<svg width="24" height="24" viewBox="0 0 24 24" xmlns="http://www.w3.org/2000/svg" fill='currentColor'><path d="M11.365 6.63986H13.365V9.55986L20.275 16.4699L21.365 15.3699V7.90986L16.095 2.63986H8.63499L7.54499 3.73986L11.365 7.55986V6.63986ZM22.635 21.3699L2.63499 1.35986L1.36499 2.62986L5.00499 6.26986L3.36499 7.90986V15.3699L8.63499 20.6399H16.095L17.735 19.0099L21.365 22.6399L22.635 21.3699ZM12.365 16.9399C11.645 16.9399 11.065 16.3599 11.065 15.6399C11.065 14.9199 11.645 14.3399 12.365 14.3399C13.085 14.3399 13.665 14.9199 13.665 15.6399C13.665 16.3599 13.085 16.9399 12.365 16.9399Z"/></svg>

<svg xmlns="http://www.w3.org/2000/svg" width="24" height="24" viewBox="0 0 24 24" fill='currentColor'><path d="M11.365 6.64h2v2.92l6.91 6.91 1.09-1.1V7.91l-5.27-5.27h-7.46l-1.09 1.1 3.82 3.82zm11.27 14.73-20-20.01-1.27 1.27 3.64 3.64-1.64 1.64v7.46l5.27 5.27h7.46l1.64-1.63 3.63 3.63zm-10.27-4.43c-.72 0-1.3-.58-1.3-1.3s.58-1.3 1.3-1.3 1.3.58 1.3 1.3-.58 1.3-1.3 1.3"/></svg>
